src/24/panel/rocketchat-tray.svg

<svg xmlns="http://www.w3.org/2000/svg" width="24" height="24" version="1.1">
 <defs>
  <style id="current-color-scheme" type="text/css">
   .ColorScheme-Text { color:#dfdfdf; } .ColorScheme-Highlight { color:#5294e2; }
  </style>
 </defs>
 <path style="fill:currentColor" class="ColorScheme-Text" d="M 4,4 C 4.625289,4.9191748 5.0814606,6.662158 5.3378906,8.681641 4.4662891,9.664932 4.0008959,10.819243 4,12 4.00265,13.214174 4.4964048,14.399175 5.4160156,15.398438 5.1963716,17.38357 4.740364,19.093055 4,20 6.101032,20 8.0025374,19.106296 9.3808594,17.662109 10.222682,17.883472 11.107941,17.997678 12,18 16.418278,18 20,15.313708 20,12 20,8.686291 16.418278,6 12,6 11.107941,6.0023218 10.222682,6.1165275 9.3808594,6.3378906 8.0025374,4.8937041 6.101032,4 4,4 Z m 8,4 a 6,4 0 0 1 0.652344,0.02539 c 0.0045,3.41e-4 0.0092,-3.48e-4 0.01367,0 a 6,4 0 0 1 0.05664,0.0059 6,4 0 0 1 5.175782,3.248047 c 0.0031,0.01117 0.0087,0.02201 0.01172,0.0332 A 6,4 0 0 1 18,12 6,4 0 0 1 17.91602,12.642578 c -0.0068,0.0274 -0.01184,0.05472 -0.01953,0.08203 A 6,4 0 0 1 17.625,13.375 6,4 0 0 1 13.324219,15.896484 c -0.004,6.36e-4 -0.0077,0.0013 -0.01172,0.002 a 6,4 0 0 1 -0.03125,0.0039 6,4 0 0 1 -0.482422,0.05664 c -0.07783,0.0073 -0.155536,0.01433 -0.234375,0.01953 A 6,4 0 0 1 12.015625,16 l -0.0098,0 A 6,4 0 0 1 12,16 6,4 0 0 1 9.4160156,15.603516 L 8.7480469,15.427734 7.9335938,16.28125 c -0.2143292,0.224571 -0.4977484,0.342544 -0.7402344,0.527344 0.06099,-0.40272 0.1643575,-0.768464 0.2109375,-1.189453 l 0.099609,-0.90625 -0.2460937,-0.267579 A 6,4 0 0 1 6.0605469,12.533203 c -0.00494,-0.02341 -0.00745,-0.04693 -0.011719,-0.07031 A 6,4 0 0 1 6,12 6,4 0 0 1 6.046875,11.523438 c 0.00351,-0.01891 0.00972,-0.03771 0.013672,-0.05664 A 6,4 0 0 1 12,8 Z m -3,3 c -0.5522847,0 -1,0.447715 -1,1 0,0.552285 0.4477153,1 1,1 0.5522847,0 1,-0.447715 1,-1 0,-0.552285 -0.4477153,-1 -1,-1 z m 3,0 c -0.552285,0 -1,0.447715 -1,1 0,0.552285 0.447715,1 1,1 0.552285,0 1,-0.447715 1,-1 0,-0.552285 -0.447715,-1 -1,-1 z m 3,0 c -0.552285,0 -1,0.447715 -1,1 0,0.552285 0.447715,1 1,1 0.552285,0 1,-0.447715 1,-1 0,-0.552285 -0.447715,-1 -1,-1 z"/>
</svg>

<svg xmlns="http://www.w3.org/2000/svg" width="24" height="24"><defs><style id="current-color-scheme" type="text/css"></style></defs><path d="M4 4c.625.92 1.081 2.662 1.338 4.682C4.466 9.665 4 10.819 4 12c.003 1.214.496 2.4 1.416 3.398C5.196 17.384 4.74 19.093 4 20c2.101 0 4.003-.894 5.38-2.338.843.221 1.728.336 2.62.338 4.418 0 8-2.686 8-6s-3.582-6-8-6c-.892.002-1.777.117-2.62.338C8.004 4.894 6.102 4 4 4zm8 4a6 4 0 0 1 .652.025h.014a6 4 0 0 1 .057.006 6 4 0 0 1 5.175 3.248c.004.012.01.022.012.034A6 4 0 0 1 18 12a6 4 0 0 1-.084.643c-.007.027-.012.054-.02.082a6 4 0 0 1-.271.65 6 4 0 0 1-4.3 2.521l-.013.002a6 4 0 0 1-.03.004 6 4 0 0 1-.483.057 8.471 8.471 0 0 1-.235.02 6 4 0 0 1-.548.021h-.01A6 4 0 0 1 12 16a6 4 0 0 1-2.584-.396l-.668-.176-.814.853c-.215.225-.498.343-.74.528.06-.403.164-.769.21-1.19l.1-.906-.246-.268a6 4 0 0 1-1.197-1.912c-.005-.023-.008-.047-.012-.07A6 4 0 0 1 6 12a6 4 0 0 1 .047-.477c.003-.018.01-.037.014-.056A6 4 0 0 1 12 8zm-3 3a1 1 0 1 0 0 2 1 1 0 0 0 0-2zm3 0a1 1 0 1 0 0 2 1 1 0 0 0 0-2zm3 0a1 1 0 1 0 0 2 1 1 0 0 0 0-2z" fill="currentColor" color="#dfdfdf"/></svg>
